X:1
T:Thy Hope for Eternity
T:Thy Hope for Eternity
T:John Robson Sweney
T:Frances Jane (Fanny) Crosby, 1882
T:Public Domain Courtesy of the Cyber Hymnal™
T:Public Domain Courtesy of the Cyber Hymnal™
C:John Robson Sweney
Z:Public Domain
Z:Courtesy of the Cyber Hymnal™
%%score ( 1 2 ) ( 3 4 )
L:1/8
Q:1/4=90
M:6/8
K:F
V:1 treble 
V:2 treble 
V:3 bass 
V:4 bass 
V:1
 (F/G/) | [FA]>[FA][FA] [FA][F^G][FA] | [FB]3 [FA]2 [Fc] | [Ec]>[EG][EG] [EG][FA][GB] | %4
w: 1.~O, *|what is thy hope for the|fu- ture, And|what of thy- self canst thou|
w: 2.~O, *|what is thy hope for the|fu- ture? ’Tis|time thou shouldst think of thy|
w: 3.~Say, *|what is thy hope for the|fu- ture, And|where is thy ha- ven? O|
 [FA]3- [FA]2 [FA]/[GB]/ | [Ac]>[Ac][Ac] [Ac][^G=B][Ac] | [Bd]3 [Ac]2 [FA] | %7
w: say? * Art thou|com- ing re- pent- ant to|Je- sus, Or|
w: soul, * When the|mo- ments like ar- rows are|fly- ing, And|
w: where? * Art thou|near- ing the har- bor of|glo- ry, Or|
 [CF]>[CF][CF] [DF][DE]F | [EG]3- [EG]2 [EG]/[FA]/ | [GB]>[GB][GB] [FA][FA][FA] | %10
w: griev- ing the Spir- it a-|way? * Art thou|build- ing a house that will|
w: the years, oh~how swift- ly they|roll. * Art thou|stor- ing the les- sons of|
w: near- ing the brink of des-|pair? * While the|Sav- ior still waits to be|
 [Fd]3 [Fc]2 [Fc] | [EB]>[EB][EB] [FA][CG]F | [EG]3- [EG]2 [EG] | [FA]>[F^G][FA] [Fc][FA][CF] | %14
w: per- ish, Or|one that for- ev- er will|stand? * Re-|mem- ber the fate of the|
w: wis- dom, So|pa- tient- ly taught by thy|Lord? * Or|care- less- ly tread- ing be-|
w: gra- cious, Make|haste, and His par- don im-|plore; * Make|haste, or the mer- cy that|
 [DG]2 [DF] [B,D]2 [B,D] | [A,C]>[CF][CF] (EF)[CG] | [CF]3- [CF]2 ||"^Refrain" [Fc] | %18
w: fool- ish man That|trust- ed the sink- * ing|sand. *||
w: neath thy feet The|pearls of His pre- * cious|Word? *|The|
w: warns thee now, Will|plead with thy soul * no|more. *||
 [Ec]>[GB][FA] [EG]>[FA][GB] | [FA]3 [CF]2 [Fc] | [Ec]>[GB][FA] ([EG][FA])[GB] | %21
w: |||
w: blood of the cru- ci- fied|Sav- ior Was|shed on the cross * for|
w: |||
 [FA]3- [FA]2 (F/G/) | [FA]>[FA][Fc] [EB]2 [EB]/[EB]/ | [Fc]3 [Fd]2 ([FB]/[DG]/) | %24
w: |||
w: thee; * But *|what is thy hope for the|fu- ture, Thy *|
w: |||
 [CF]>[FA][Fc] [Ec]2 [CE] | [CF]3- [CF]2 |] %26
w: ||
w: hope for e- ter- ni-|ty? *|
w: ||
V:2
 F | x6 | x6 | x6 | x6 | x6 | x6 | x5 F | x6 | x6 | x6 | x5 F | x6 | x6 | x6 | x3 C2 x | x5 || x | %18
 x6 | x6 | x6 | x5 F | x6 | x6 | x6 | x5 |] %26
V:3
 (A,/B,/) | [F,C]>[F,C][F,C] [F,C][F,=B,][F,C] | [F,D]3 [F,C]2 [F,A,] | %3
 [C,G,]>[C,C][C,C] [C,C][C,C][C,C] | [F,C]3- [F,C]2 [F,C]/[F,C]/ | %5
 [F,F]>[F,F][F,F] [F,F][F,F][F,F] | [F,F]3 [F,F]2 [F,C] | [F,A,]>[F,A,][F,A,] [D,A,][D,A,][D,=B,] | %8
 [C,C]3- [C,C]2 [C,C]/[C,C]/ | [C,C]>[C,C][C,C] [F,C][F,C][F,C] | B,3 [A,C]2 [A,C] | %11
 [G,C]>[G,C][G,C] [F,C][E,C][D,=B,] | [C,C]3- [C,C]2 [C,C] | [F,C]>[F,=B,][F,C] [F,A,][F,C][A,,C] | %14
 [B,,B,]2 [B,,B,] [B,,F,]2 [B,,F,] | [C,F,]>[C,A,][C,A,] (G,A,)[C,B,] | [F,A,]3- [F,A,]2 || %17
 [F,A,] | [C,G,]>[C,C][C,C] [C,C]>[C,C][C,C] | [F,C]3 [F,A,]2 [F,A,] | %20
 [C,G,]>[C,C][C,C] [C,C]2 [C,C] | [F,C]3- [F,C]2 (A,/B,/) | [F,C]>[F,C][A,C] [G,C]2 [G,C]/[G,C]/ | %23
 [A,C]3 B,2 (D/B,/) | [C,A,]>[C,C][C,A,] [C,G,]2 [C,B,] | [F,A,]3- [F,A,]2 |] %26
V:4
 F, | x6 | x6 | x6 | x6 | x6 | x6 | x6 | x6 | x6 | B,3 x3 | x6 | x6 | x6 | x6 | x3 C,2 x | x5 || %17
 x | x6 | x6 | x6 | x5 F, | x6 | x3 B,2 B,, | x6 | x5 |] %26

